packages/react-icons/icons/person.svg

<svg width="24" height="24" viewBox="0 0 24 24" xmlns="http://www.w3.org/2000/svg"><path fill-rule="evenodd" clip-rule="evenodd" d="M12.1086 3.91133C7.58027 3.91133 3.90937 7.58223 3.90937 12.1105C3.90937 13.8882 4.47511 15.5337 5.43635 16.8769C7.15845 15.1992 9.51253 14.1643 12.1083 14.1643C14.7043 14.1643 17.0585 15.1993 18.7806 16.8772C19.7419 15.5339 20.3077 13.8883 20.3077 12.1105C20.3077 7.58223 16.6368 3.91133 12.1086 3.91133ZM12.1086 20.3097C10.0069 20.3097 8.08987 19.5189 6.63885 18.2187C8.04269 16.8243 9.97507 15.9643 12.1083 15.9643C14.2417 15.9643 16.1742 16.8244 17.578 18.2189C16.127 19.519 14.2101 20.3097 12.1086 20.3097ZM2.10938 12.1105C2.10938 6.58811 6.58616 2.11133 12.1086 2.11133C17.631 2.11133 22.1077 6.58811 22.1077 12.1105C22.1077 17.6329 17.631 22.1097 12.1086 22.1097C6.58616 22.1097 2.10938 17.6329 2.10938 12.1105ZM10.2933 10.0727C10.2933 9.06979 11.1063 8.25678 12.1092 8.25678C13.1121 8.25678 13.9251 9.06979 13.9251 10.0727C13.9251 11.0756 13.1121 11.8886 12.1092 11.8886C11.1063 11.8886 10.2933 11.0756 10.2933 10.0727ZM12.1092 6.65678C10.2227 6.65678 8.6933 8.18613 8.6933 10.0727C8.6933 11.9593 10.2227 13.4886 12.1092 13.4886C13.9958 13.4886 15.5251 11.9593 15.5251 10.0727C15.5251 8.18613 13.9958 6.65678 12.1092 6.65678Z"/></svg>

<svg xmlns="http://www.w3.org/2000/svg" width="24" height="24"><path fill-rule="evenodd" d="M12.109 3.911a8.2 8.2 0 0 0-6.673 12.966 9.532 9.532 0 0 1 6.672-2.713 9.532 9.532 0 0 1 6.673 2.713 8.2 8.2 0 0 0-6.672-12.966Zm0 16.399a8.169 8.169 0 0 1-5.47-2.091 7.736 7.736 0 0 1 5.47-2.255c2.133 0 4.065.86 5.469 2.255a8.169 8.169 0 0 1-5.47 2.09Zm-10-8.2c0-5.522 4.477-9.999 10-9.999 5.522 0 9.999 4.477 9.999 10 0 5.522-4.477 9.999-10 9.999-5.522 0-9.999-4.477-9.999-10Zm8.184-2.037a1.816 1.816 0 1 1 3.632 0 1.816 1.816 0 0 1-3.632 0Zm1.816-3.416a3.416 3.416 0 1 0 0 6.832 3.416 3.416 0 0 0 0-6.832Z" clip-rule="evenodd"/></svg>
